src/images/icons/star_full.svg

<svg width="47" height="47" viewBox="0 0 43 43" fill="none" xmlns="http://www.w3.org/2000/svg">
<g clip-path="url(#clip0_9_51)">
<path d="M37.3111 21.8834C19.86 22.5409 19.3273 23.0741 18.6698 40.5341C18.0128 23.0741 17.4801 22.5409 0.0288849 21.8834C17.4801 21.2264 18.0128 20.6932 18.6698 3.23322C19.3273 20.6932 19.86 21.2264 37.3111 21.8834Z" fill="#3F60A0"/>
<path d="M47.7231 36.6115C38.0029 36.9777 37.7062 37.2744 37.34 47C36.9738 37.2744 36.6771 36.9777 26.9565 36.6115C36.6771 36.2453 36.9738 35.9481 37.34 26.2231C37.7062 35.9481 38.0029 36.2453 47.7231 36.6115Z" fill="#3F60A0"/>
<path d="M41.6195 7.33543C34.756 7.59393 34.5465 7.80347 34.288 14.6704C34.03 7.80347 33.8199 7.59393 26.9565 7.33543C33.8199 7.07693 34.03 6.86739 34.288 0C34.5465 6.86739 34.756 7.07693 41.6195 7.33543Z" fill="#3F60A0"/>
</g>
<defs>
<clipPath id="clip0_9_51">
<rect width="47" height="47" fill="white"/>
</clipPath>
</defs>
</svg>

<svg width="47" height="47" viewBox="0 0 43 43" fill="none" xmlns="http://www.w3.org/2000/svg"><g clip-path="url(#a)" fill="#3F60A0"><path d="M37.311 21.883c-17.451.658-17.984 1.191-18.641 18.651-.657-17.46-1.19-17.993-18.641-18.65 17.451-.658 17.984-1.19 18.64-18.65.658 17.46 1.191 17.992 18.642 18.65Zm10.412 14.728c-9.72.367-10.017.663-10.383 10.389-.366-9.726-.663-10.022-10.384-10.389 9.721-.366 10.018-.663 10.384-10.388.366 9.725.663 10.022 10.383 10.389ZM41.62 7.335c-6.864.259-7.073.468-7.332 7.335-.258-6.867-.468-7.076-7.331-7.335C33.82 7.077 34.03 6.867 34.288 0c.259 6.867.468 7.077 7.332 7.335Z"/></g><defs><clipPath id="a"><path fill="#fff" d="M0 0h47v47H0z"/></clipPath></defs></svg>
